X:1
T: Marshall's Compliments to Neil Gow
C:
R:Reel
Q: 232
K:A
M:4/4
L:1/8
|:E2|A3B A2 E2|A2 B2 A4|AB cB A2 E2|F2 B2 B4|
c3B A2 E2|F2 f2 e2 d2|cd ef ed cB|c2 a2 a2 fg|
a3c e2 c2|a2 c2 e4|ag fe dc BA|GA Bc B2 g2|
a3c e2 c2|a2 c2 e4|fe dc Bc de|c2 A2 A2:|
